!!!!SEGMENT: pl-kk--kk-i-282_anonim--sancta-maria-succurre-miseris.krn
!!!id: 17xx:2094
!!!COM: Anonim
!!!COM-rism: pe30004985
!!!CDT:
!!!CNT:
!!!OTL: Sancta Maria succurre miseris
!!!PDT:
!!!SMS-siglum: PL-Kk
!!!SMS-shelfmark: Kk.I.282
!!!NIFC-rismID: 1001147196
!!!URL-scan: http://repozytorium.nifc.pl/skany/pl-kk-nut--i-282
!!!ONB-nifc:
!!!SMS-variant:
!!!SMS-altvar:
**kern	**text	**kern	**text	**kern	**text	**text	**kern	**text	**text
*part4	*part4	*part3	*part3	*part2	*part2	*part2	*part1	*part1	*part1
*staff4	*staff4	*staff3	*staff3	*staff2	*staff2	*staff2	*staff1	*staff1	*staff1
*I"[Tenore]	*	*I"[Altus]	*	*I"[Cantus]	*	*	*I"[Superius]	*	*
*I'[T]	*	*I'[A]	*	*I'[S]	*	*	*I'[S]	*	*
*clefF3	*	*clefC3	*	*clefC1	*	*	*clefG2	*	*
*k[]	*	*k[]	*	*k[]	*	*	*k[]	*	*
*M2/1	*	*M2/1	*	*M2/1	*	*	*M2/1	*	*
*met(C|)	*	*met(C|)	*	*met(C|)	*	*	*met(C|)	*	*
=1-	=1-	=1-	=1-	=1-	=1-	=1-	=1-	=1-	=1-
0A\	San-	2A/	San-	1r	.	.	0r	.	.
!	!	!LO:TX:t=P:problem:kreska pseudotaktowa	!	!	!	!	!	!	!
.	.	2B/	.	.	.	.	.	.	.
.	.	2c/	.	2e/	San-	.	.	.	.
!	!	!LO:TX:t=P:problem:kreska pseudotaktowa	!	!LO:TX:t=P:problem:kreska pseudotaktowa	!	!	!	!	!
.	.	2d\	.	2f#X/	.	.	.	.	.
=2-	=2-	=2-	=2-	=2-	=2-	=2-	=2-	=2-	=2-
!LO:TX:t=P:problem:kreska pseudotaktowa	!	!	!	!	!	!	!LO:TX:t=P:problem:kreska pseudotaktowa	!	!
0E/	-cta	2e\	.	2g/	.	.	1r	.	.
!	!	!	!	!LO:TX:t=P:problem:kreska pseudotaktowa	!	!	!	!	!
.	.	1d\	cta	2a\	.	.	.	.	.
.	.	.	.	2b\	.	.	0ee\	San-	.
!	!	!LO:TX:t=P:problem:kreska pseudotaktowa	!	!	!	!	!	!	!
.	.	2c/	.	1a\	-cta	.	.	.	.
=3-	=3-	=3-	=3-	=3-	=3-	=3-	=3-	=3-	=3-
1E/	Ma-	2B/	.	.	.	.	.	.	.
!	!	!	!	!LO:TX:t=P:problem:kreska pseudotaktowa	!	!	!	!	!
!	!	!	!	!LO:TX:t=P:problem: above	!	!	!	!	!
.	.	2e\	San-	2g#X/	.	.	.	.	.
!	!	!	!	!	!	!	!LO:TX:t=P:problem:kreska pseudotaktowa	!	!
2.F/	-ri-	2.c/	-cta	2f/	.	.	0a/	-cta	.
!	!	!	!	!LO:TX:t=P:problem:kreska pseudotaktowa	!	!	!	!	!
.	.	.	.	2a\	Ma-	.	.	.	.
!LO:TX:t=P:problem:kreska pseudotaktowa	!	!LO:TX:t=P:problem:kreska pseudotaktowa	!	!	!	!	!	!	!
4E/	.	4c/	Ma-	.	.	.	.	.	.
=4-	=4-	=4-	=4-	=4-	=4-	=4-	=4-	=4-	=4-
2D/	.	2d\	-ri-	2f#X/	-ri-	.	.	.	.
!LO:TX:t=P:problem:kreska pseudotaktowa	!	!LO:TX:t=P:problem:kreska pseudotaktowa	!	!	!	!	!	!	!
2C/	.	2e\	.	1g\	.	.	.	.	.
2D/	-a	1d\	.	.	.	.	1a/	Ma-	.
!	!	!	!	!LO:TX:t=P:problem:kreska pseudotaktowa	!	!	!	!	!
1d\	San-	.	.	2f#X/	.	.	.	.	.
=5-	=5-	=5-	=5-	=5-	=5-	=5-	=5-	=5-	=5-
!	!	!LO:TX:t=P:problem:kreska pseudotaktowa	!	!	!	!	!	!	!
.	.	1G/	-a	2g/	-a	.	2.b/	-ri-	.
!LO:TX:t=P:problem:kreska pseudotaktowa	!	!	!	!LO:TX:t=P:problem:kreska pseudotaktowa	!	!	!	!	!
2B\	-cta	.	.	2d/	San-	.	.	.	.
!	!	!	!	!	!	!	!LO:TX:t=P:problem:kreska pseudotaktowa	!	!
.	.	.	.	.	.	.	4a/	.	.
2c\	Ma-	2r	.	2e/	-cta	.	2g/	.	.
2A\	-ri-	2c/	San-	4d/	.	.	2f#X/	.	.
!	!	!	!	!LO:TX:t=P:problem:kreska pseudotaktowa	!	!	!	!	!
.	.	.	.	4c/	.	.	.	.	.
=6-	=6-	=6-	=6-	=6-	=6-	=6-	=6-	=6-	=6-
!LO:TX:t=P:problem:kreska pseudotaktowa	!	!	!	!LO:SIC:v:t=custos g	!	!	!	!	!
1G\	-a	2c/	-cta	2d/	Ma-	.	2.g/	.	.
!	!	!	!	!LO:LB:g=original	!	!	!	!	!
!	!	!LO:TX:t=P:problem:kreska pseudotaktowa	!	!LO:TX:t=P:problem:kreska pseudotaktowa	!	!	!	!	!
.	.	2B/	Ma-	2g/	-ri-	.	.	.	.
!	!	!	!	!	!	!	!LO:TX:t=P:problem:kreska pseudotaktowa	!	!
.	.	.	.	.	.	.	4f/	.	.
!	!	!LO:TX:t=P:problem:kreska pseudotaktowa	!	!	!	!	!	!	!
*	*ij	*	*	*	*	*	*	*	*
1C/	San-	1c\	-ri-	2g/	-a	.	2e/	-a	.
.	.	.	.	2e/	Ma-	.	1cc\	San-	.
!	!	!LO:LB:g=original	!	!	!	!	!	!	!
=7-	=7-	=7-	=7-	=7-	=7-	=7-	=7-	=7-	=7-
!	!	!	!	!LO:TX:t=P:problem:kreska pseudotaktowa	!	!	!	!	!
1.F\	-cta	2A/	-a	1f/	-ri-	.	.	.	.
!	!	!	!	!	!	!	!LO:TX:t=P:problem:kreska pseudotaktowa	!	!
.	.	1f\	San-	.	.	.	2cc\	-cta	.
.	.	.	.	2c/	-a	.	1a/	Ma-	.
!LO:TX:t=P:problem:kreska pseudotaktowa	!	!LO:TX:t=P:problem:kreska pseudotaktowa	!	!	!	!	!	!	!
2F/	Ma-	2f\	-cta	2c/	San-	.	.	.	.
=8-	=8-	=8-	=8-	=8-	=8-	=8-	=8-	=8-	=8-
0G\	-ri-	2d\	Ma-	2g/	-cta	.	2b/	-ri-	.
!	!	!	!	!LO:TX:t=P:problem:kreska pseudotaktowa	!	!	!	!	!
.	.	2e\	.	2g/	Ma-	.	1cc\	.	.
!	!	!LO:TX:t=P:problem:kreska pseudotaktowa	!	!	!	!	!	!	!
.	.	1d\	-ri-	1g\	-ri-	.	.	.	.
!	!	!	!	!	!	!	!LO:TX:t=P:problem:kreska pseudotaktowa	!	!
.	.	.	.	.	.	.	2b\	.	.
=9-	=9-	=9-	=9-	=9-	=9-	=9-	=9-	=9-	=9-
!LO:TX:t=P:problem:kreska pseudotaktowa	!	!	!	!	!	!	!	!	!
0C/	-a	1e\	-a	2g\	-a	.	1cc\	-a	.
*	*Xij	*	*	*	*	*	*	*	*
.	.	.	.	1g\	Suc-	.	.	.	.
!	!	!LO:TX:t=P:problem:kreska pseudotaktowa	!	!	!	!	!	!	!
.	.	1c\	Suc-	.	.	.	2r	.	.
!	!	!	!	!LO:TX:t=P:problem:kreska pseudotaktowa	!	!	!LO:TX:t=P:problem:kreska pseudotaktowa	!	!
.	.	.	.	2a\	-cur-	.	2cc\	Suc-	.
!LO:LB:g=original	!	!	!	!	!	!	!LO:LB:g=original	!	!
=10-	=10-	=10-	=10-	=10-	=10-	=10-	=10-	=10-	=10-
!LO:TX:a:t=8	!	!	!	!	!	!	!	!	!
00r	.	1B/	-cur-	(2a\	-re	.	1dd\	-cur-	.
!	!	!	!	!LO:TX:t=P:problem:kreska pseudotaktowa	!	!	!	!	!
.	.	.	.	2g/)	Suc-	.	.	.	.
!	!	!LO:TX:t=P:problem:kreska pseudotaktowa	!	!	!	!	!	!	!
.	.	1A/	-re	(2f/	-cur-	.	(2dd\	-re	.
!	!	!	!	!LO:TX:t=P:problem:kreska pseudotaktowa	!	!	!LO:TX:t=P:problem:kreska pseudotaktowa	!	!
.	.	.	.	2e/)	-re	.	2cc\)	.	.
=11-	=11-	=11-	=11-	=11-	=11-	=11-	=11-	=11-	=11-
*	*	*	*	*	*ij	*	*	*	*
.	.	2B/	Suc-	(2d/	Suc-	.	2b/	Suc-	.
.	.	2c/	.	2c/)	-cur-	.	1a/	-cur-	.
!	!	!	!	!LO:TX:t=P:problem:kreska pseudotaktowa	!	!	!	!	!
.	.	2d\	-cur-	1B/	-re	.	.	.	.
*	*	*	*	*	*Xij	*	*	*	*
!	!	!LO:TX:t=P:problem:kreska pseudotaktowa	!	!	!	!	!LO:TX:t=P:problem:kreska pseudotaktowa	!	!
.	.	2e\	.	.	.	.	2g#X/	.	.
=12-	=12-	=12-	=12-	=12-	=12-	=12-	=12-	=12-	=12-
00r	.	2f#X\	-re	2A/	Mi-	.	2a/	-re	.
.	.	1g\	Suc-	2G/	-se-	.	2b/	Suc-	.
.	.	.	.	2A/	-ris	.	2cc#X\	-cur-	.
!	!	!LO:TX:t=P:problem:kreska pseudotaktowa	!	!LO:TX:t=P:problem:kreska pseudotaktowa	!	!	!LO:TX:t=P:problem:kreska pseudotaktowa	!	!
.	.	2fny\	-cur-	2a\	Suc-	.	2dd\	-re	.
=13-	=13-	=13-	=13-	=13-	=13-	=13-	=13-	=13-	=13-
.	.	2e\	-re	2g\	-cur-	.	4ee\	mi-	.
.	.	.	.	.	.	.	4cc\	.	.
.	.	2d\	.	4b-X\	-re	.	1ff\	.	.
!	!	!	!	!LO:TX:t=P:problem:kreska pseudotaktowa	!	!	!	!	!
.	.	.	.	4a\	Mi-	.	.	.	.
!	!	!	!	!LO:LB:g=original	!	!	!	!	!
.	.	2.c/	mi-	4a\	.	.	.	.	.
.	.	.	.	8g\L	.	.	.	.	.
.	.	.	.	8f\J	.	.	.	.	.
!	!	!	!	!	!	!	!LO:TX:t=P:problem:kreska pseudotaktowa	!	!
.	.	.	.	2g/	-ſe-	.	2ee\	-ſe-	.
.	.	4c/	-ſe-	.	.	.	.	.	.
=14-	=14-	=14-	=14-	=14-	=14-	=14-	=14-	=14-	=14-
!	!	!LO:TX:t=P:problem:kreska pseudotaktowa	!	!LO:TX:t=P:problem:kreska pseudotaktowa	!	!	!	!	!
2r	.	0F/	-ris.	1a\	-ris	.	1ff\	-ris	.
1c\	Suc-	.	.	.	.	.	.	.	.
.	.	.	.	2r	.	.	2r	.	.
!LO:TX:t=P:problem:kreska pseudotaktowa	!	!	!	!LO:TX:t=P:problem:kreska pseudotaktowa	!	!	!LO:TX:t=P:problem:kreska pseudotaktowa	!	!
2d\	-cur-	.	.	2f/	Suc-	.	2ff\	Suc-	.
=15-	=15-	=15-	=15-	=15-	=15-	=15-	=15-	=15-	=15-
!	!	!LO:TX:a:t=8	!	!	!	!	!	!	!
2d\	-re	00r	.	1e/	-cur-	.	1gg\	-cur-	.
!LO:TX:t=P:problem:kreska pseudotaktowa	!	!	!	!	!	!	!	!	!
*	*ij	*	*	*	*	*	*	*	*
2c\	Suc-	.	.	.	.	.	.	.	.
!	!	!	!	!LO:TX:t=P:problem:kreska pseudotaktowa	!	!	!	!	!
2B\	-cur-	.	.	1d/	-re	.	(2gg\	-re	.
!LO:TX:t=P:problem:kreska pseudotaktowa	!	!	!	!	!	!	!LO:TX:t=P:problem:kreska pseudotaktowa	!	!
2A\	-re	.	.	.	.	.	2ff\)	.	.
=16-	=16-	=16-	=16-	=16-	=16-	=16-	=16-	=16-	=16-
2G\	Suc-	.	.	2e/	Suc-	.	2ee\	Suc-	.
!LO:TX:t=P:problem:kreska pseudotaktowa	!	!	!	!LO:TX:t=P:problem:kreska pseudotaktowa	!	!	!	!	!
2F\	-cur-	.	.	2f/	-cur-	.	1dd\	-cur-	.
1E/	-re	.	.	2g/	-re	.	.	.	.
*	*Xij	*	*	*	*ij	*	*	*	*
!	!	!	!	!LO:TX:t=P:problem:kreska pseudotaktowa	!	!	!LO:TX:t=P:problem:kreska pseudotaktowa	!	!
.	.	.	.	2a\	Suc-	.	2cc#X\	.	.
=17-	=17-	=17-	=17-	=17-	=17-	=17-	=17-	=17-	=17-
!	!	!LO:TX:t=P:problem:kreska pseudotaktowa	!	!	!	!	!	!	!
2D/	mi-	00r	.	2b\	-cur-	.	2dd\	-re	.
!LO:TX:t=P:problem:kreska pseudotaktowa	!	!	!	!	!	!	!	!	!
2C/	-ſe-	.	.	1cc\	-re	.	2ee\	Suc-	.
*	*	*	*	*	*Xij	*	*	*	*
!	!	!	!	!	!	!	!LO:LB:g=original	!	!
2D/	-ris	.	.	.	.	.	2ff\	-cur-	.
!	!	!	!	!LO:TX:t=P:problem:kreska pseudotaktowa:między nutą a kropką	!	!	!	!	!
2G\	Suc-	.	.	2.b\	Mi-	.	2.dd\	-re	.
=18-	=18-	=18-	=18-	=18-	=18-	=18-	=18-	=18-	=18-
!LO:SIC:v:l:s=-cur-	!	!	!	!	!	!	!	!	!
2F\	-ur-	.	.	.	.	.	.	.	.
.	.	.	.	4a\	.	.	4cc\	.	.
!LO:TX:t=P:problem:kreska pseudotaktowa	!	!	!	!	!	!	!	!	!
2A\	-re	.	.	1a\	.	.	4cc\	mi-	.
.	.	.	.	.	.	.	8b\L	.	.
!	!	!	!	!	!	!	!LO:TX:t=P:problem:kreska pseudotaktowa	!	!
.	.	.	.	.	.	.	8a\J	.	.
2.E/	mi-	.	.	.	.	.	2.b/	.	.
!	!	!	!	!LO:TX:t=P:problem:kreska pseudotaktowa	!	!	!	!	!
.	.	.	.	2g#X/	-ſe-	.	.	.	.
4E/	-ſe-	.	.	.	.	.	4b/	-ſe-	.
!	!	!LO:LB:g=original	!	!	!	!	!	!	!
=19-	=19-	=19-	=19-	=19-	=19-	=19-	=19-	=19-	=19-
!	!	!	!	!LO:TX:t=P:problem:kreska pseudotaktowa	!	!	!	!	!
!LO:TX:t=P:problem:kreska pseudotaktowa	!	!LO:TX:t=P:problem:kreska pseudotaktowa	!	!LO:TX:a:t=2	!	!	!LO:TX:t=P:problem:kreska pseudotaktowa	!	!
0AA/	-ris	1r	.	0a\	-ris	.	0cc#X\	-ris	.
.	.	2r	.	.	.	.	.	.	.
.	.	1e\	Ju-	.	.	.	.	.	.
=20-	=20-	=20-	=20-	=20-	=20-	=20-	=20-	=20-	=20-
0A\	Ju-	.	.	2r	.	.	0r	.	.
!	!	!LO:TX:t=P:problem:kreska pseudotaktowa	!	!	!	!	!	!	!
.	.	2d\	.	1a\	ju-	.	.	.	.
.	.	2c#X/	-va	.	.	.	.	.	.
!	!	!	!	!LO:TX:t=P:problem:kreska pseudotaktowa	!	!	!	!	!
.	.	1d\	ju-	2g/	-va	.	.	.	.
!	!	!	!	!LO:LB:g=original	!	!	!	!	!
=21-	=21-	=21-	=21-	=21-	=21-	=21-	=21-	=21-	=21-
!LO:TX:t=P:problem:kreska pseudotaktowa	!	!	!	!	!	!	!LO:TX:t=P:problem:kreska pseudotaktowa	!	!
1D/	-va	.	.	2f#X/	ju-	.	1r	.	.
!	!	!LO:TX:t=P:problem:kreska pseudotaktowa	!	!	!	!	!	!	!
.	.	2c/	.	1g\	.	.	.	.	.
!LO:LB:g=original	!	!	!	!	!	!	!	!	!
2D/	pu-	2B/	.	.	.	.	1dd\	Ju-	.
!LO:TX:t=P:problem:kreska pseudotaktowa	!	!	!	!LO:TX:t=P:problem:kreska pseudotaktowa	!	!	!	!	!
2D/	-ſi-	2A/	.	2f#X/	-va	.	.	.	.
=22-	=22-	=22-	=22-	=22-	=22-	=22-	=22-	=22-	=22-
!	!	!LO:TX:t=P:problem:kreska pseudotaktowa	!	!	!	!	!	!	!
1.B-X\	-la-	1G/	-va	2g/	pu-	.	2d/	-va	.
!	!	!	!	!LO:TX:t=P:problem:kreska pseudotaktowa	!	!	!LO:TX:t=P:problem:kreska pseudotaktowa	!	!
.	.	.	.	2f/	-ſil-	.	2d/	ju-	.
.	.	2G/	pu-	2e/	-la-	.	1g/	-va	.
!LO:TX:t=P:problem:kreska pseudotaktowa	!	!	!	!LO:TX:t=P:problem:kreska pseudotaktowa	!	!	!	!	!
2B-\	-mi-	2g\	-ſil-	2d/	-mi-	.	.	.	.
=23-	=23-	=23-	=23-	=23-	=23-	=23-	=23-	=23-	=23-
!LO:TX:t=P:problem:kreska pseudotaktowa	!	!	!	!LO:TX:t=P:problem:kreska pseudotaktowa	!	!	!	!	!
0A\	-nes	2g\	-la-	1c/	-nes	.	2.a/	pu-	.
!	!	!LO:TX:t=P:problem:kreska pseudotaktowa	!	!	!	!	!	!	!
.	.	2f\	-mi-	.	.	.	.	.	.
!	!	!	!	!	!	!	!LO:TX:t=P:problem:kreska pseudotaktowa	!	!
.	.	.	.	.	.	.	4b/	-ſil-	.
.	.	2e\	-nes	0r	.	.	2.cc\	-la-	.
.	.	2a\	pu-	.	.	.	.	.	.
.	.	.	.	.	.	.	4dd\	-mi-	.
=24-	=24-	=24-	=24-	=24-	=24-	=24-	=24-	=24-	=24-
0c\	re-	2a\	-ſil-	.	.	.	2ee\	-nes	.
.	.	4g\	-la-	.	.	.	1ff\	pu-	.
!	!	!LO:TX:t=P:problem:kreska pseudotaktowa	!	!	!	!	!	!	!
.	.	4f\	.	.	.	.	.	.	.
.	.	2.g\	.	2r	.	.	.	.	.
!	!	!	!	!	!	!	!LO:TX:t=P:problem:kreska pseudotaktowa	!	!
.	.	.	.	1cc\	re-	.	2ee\	-ſil-	.
!	!	!LO:TX:t=P:problem:kreska pseudotaktowa	!	!	!	!	!	!	!
.	.	4g\	-mi-	.	.	.	.	.	.
=25-	=25-	=25-	=25-	=25-	=25-	=25-	=25-	=25-	=25-
!LO:TX:t=P:problem:kreska pseudotaktowa	!	!	!	!	!	!	!	!	!
0F\	-fo-	2a\	-nes	.	.	.	2.ff\	-la-	.
!	!	!	!	!LO:TX:t=P:problem:kreska pseudotaktowa	!	!	!	!	!
.	.	1f\	re-	2b\	-fo-	.	.	.	.
.	.	.	.	.	.	.	4ff\	-mi-	.
!	!	!	!	!	!	!	!LO:TX:t=P:problem:kreska pseudotaktowa	!	!
.	.	.	.	1a\	-ve	.	1cc\	-nes	.
!	!	!LO:TX:t=P:problem:kreska pseudotaktowa	!	!	!	!	!	!	!
.	.	2e\	-fo-	.	.	.	.	.	.
!	!	!	!	!	!	!	!LO:LB:g=original	!	!
=26-	=26-	=26-	=26-	=26-	=26-	=26-	=26-	=26-	=26-
!LO:TX:t=P:problem:kreska pseudotaktowa	!	!LO:SIC:v:t=custos b	!	!	!	!	!	!	!
0G\	-ve	1d\	-ve	2.b-X\	re-	.	2.gg\	re-	.
!	!	!	!	!LO:TX:t=P:problem:kreska pseudotaktowa	!	!	!	!	!
.	.	.	.	4a\	-fo-	.	4ff\	-fo-	.
!	!	!LO:LB:g=original	!	!	!	!	!	!	!
.	.	2.b-X\	fle-	(2g/	-ve	.	(2ee\	-ve	.
!	!	!	!	!LO:TX:t=P:problem:kreska pseudotaktowa	!	!	!LO:TX:t=P:problem:kreska pseudotaktowa	!	!
.	.	.	.	2f/)	.	.	2dd\)	.	.
!	!	!LO:TX:t=P:problem:kreska pseudotaktowa	!	!	!	!	!	!	!
.	.	4b-\	-bi-	.	.	.	.	.	.
=27-	=27-	=27-	=27-	=27-	=27-	=27-	=27-	=27-	=27-
1.A\	fle-	2a\	-les	2e/	fle-	.	2cc#X\	fle-	.
.	.	4a\	re-	4f/	.	.	1dd\	.	.
!	!	!LO:TX:t=P:problem:kreska pseudotaktowa	!	!LO:TX:t=P:problem:kreska pseudotaktowa	!	!	!	!	!
.	.	4g\	-fo-	4g/	.	.	.	.	.
.	.	2f\	-ve	2.a\	.	.	.	.	.
!	!	!	!	!	!	!	!LO:TX:t=P:problem:kreska pseudotaktowa	!	!
!	!	!LO:TX:t=P:problem:kreska pseudotaktowa	!	!	!	!	!LO:TX:t=P:problem:♯ above	!	!
2A\	-bi-	2e\	.	.	.	.	2cc#X\	-bi-	.
.	.	.	.	4a\	-bi-	.	.	.	.
=28-	=28-	=28-	=28-	=28-	=28-	=28-	=28-	=28-	=28-
!LO:TX:t=P:problem:kreska pseudotaktowa	!	!	!	!	!	!	!	!	!
0D/	-les	2d\	.	2f/	-les	.	2dd\	-les	.
.	.	4f\	re-	4a\	re-	.	4dd\	re-	.
!	!	!LO:TX:t=P:problem:kreska pseudotaktowa	!	!LO:TX:t=P:problem:kreska pseudotaktowa	!	!	!LO:TX:t=P:problem:kreska pseudotaktowa	!	!
.	.	4e\	-fo-	4g\	-fo-	.	4cc\	-fo-	.
!	!	!	!	!LO:LB:g=original	!	!	!	!	!
.	.	2d\	-ve	1f/	-ve	.	(2b/	-ve	.
!	!	!	!	!	!	!	!LO:TX:t=P:problem:kreska pseudotaktowa	!	!
.	.	2c/	.	.	.	.	2a/)	.	.
=29-	=29-	=29-	=29-	=29-	=29-	=29-	=29-	=29-	=29-
2E/	re-	2B/	.	2e/	fle-	.	2g#X/	fle-	.
!	!	!LO:TX:t=P:problem:kreska pseudotaktowa	!	!LO:TX:t=P:problem:kreska pseudotaktowa	!	!	!	!	!
2F/	.	2A/	.	2d/	.	.	1a/	.	.
2.E/	.	2.B/	fla-	2.e/	.	.	.	.	.
!	!	!	!	!	!	!	!LO:TX:t=P:problem:kreska pseudotaktowa	!	!
.	.	.	.	.	.	.	2g#X/	-bi-	.
4D/	-fo-	4B/	-bi-	4e/	-bi-	.	.	.	.
=30-	=30-	=30-	=30-	=30-	=30-	=30-	=30-	=30-	=30-
!	!	!	!	!	!	!	!LO:TX:t=P:problem:kreska pseudotaktowa	!	!
!	!	!	!	!	!	!	!LO:TX:t=P:problem:błędnie dopisana 2	!	!
!LO:TX:t=P:problem:kreska pseudotaktowa	!	!LO:TX:t=P:problem:kreska pseudotaktowa	!	!	!	!	!LO:TX:b:t=2	!	!
1C#X/	-ve	1A/	-les	2e/	-les	.	0a/	-les	.
!	!	!	!	!LO:TX:t=P:problem:kreska pseudotaktowa	!	!	!	!	!
.	.	.	.	2e/	re-	.	.	.	.
2.D/	fle-	2r	.	2.f/	.	.	.	.	.
.	.	2.A/	re-	.	.	.	.	.	.
4D/	-bi-	.	.	4g\	.	.	.	.	.
=31-	=31-	=31-	=31-	=31-	=31-	=31-	=31-	=31-	=31-
*	*	*	*	*^	*	*	*	*	*
!LO:TX:t=P:problem:kreska pseudotaktowa	!	!	!	!	!	!	!	!	!	!
1AA/	-les	.	.	4a\	2ryy	.	.	2.cc\	re-	.
.	.	4A/	-fo-	4b\	.	.	.	.	.	.
!	!	!	!	!LO:TX:t=P:problem:kreska pseudotaktowa	!	!	!	!	!	!
!	!	!LO:TX:t=P:problem:kreska pseudotaktowa	!	!LO:TX:t=P:problem:w drugiej warstwie dodatkowy podział rytmiczny [zapisano po konsultacji z J.I.]:global	!	!	!	!	!	!
.	.	2A/	-ve	4.cc\	2cc\	.	.	.	.	.
.	.	.	.	.	.	.	.	4dd\	.	.
.	.	.	.	8cc\	.	-fo-	.	.	.	.
!LO:TX:a:t=6	!	!	!	!	!	!	!	!	!	!
00r	.	2.c/	re-	2g/	1ryy	-ve	.	4ee\	.	.
.	.	.	.	.	.	.	.	4ff\	.	.
!	!	!	!	!	!	!	!	!LO:TX:t=P:problem:kreska pseudotaktowa:między nutą a kropką	!	!
.	.	.	.	4e/	.	re-	.	2.gg\	.	.
!	!	!LO:TX:t=P:problem:kreska pseudotaktowa	!	!LO:TX:t=P:problem:kreska pseudotaktowa	!	!	!	!	!	!
.	.	4d\	.	4f/	.	.	.	.	.	.
=32-	=32-	=32-	=32-	=32-	=32-	=32-	=32-	=32-	=32-	=32-
.	.	4e\	.	4g/	2ryy	.	.	.	.	.
!	!	!LO:TX:t=P:problem:custos g	!	!	!	!	!	!	!	!
.	.	4f\	.	4a/	.	.	.	4gg\	-fo-	.
!	!	!LO:LB:g=original	!	!	!	!	!	!	!	!
.	.	2.g\	.	1b/	2.b\	.	.	1dd\	-ve	.
.	.	4g\	-fo-	.	4b\	.	.	.	.	.
!	!	!LO:TX:t=P:problem:kreska pseudotaktowa	!	!	!	!	!	!LO:TX:t=P:problem:kreska pseudotaktowa	!	!
.	.	2f\	-ve	2a\	2a\	-fo-	.	2ff\	fle-	.
!	!	!	!	!LO:TX:t=P:problem:kreska pseudotaktowa	!	!	!	!	!	!
*	*	*	*	*v	*v	*	*	*	*	*
!	!	!	!	!	!	!	!LO:LB:g=original	!	!
=33-	=33-	=33-	=33-	=33-	=33-	=33-	=33-	=33-	=33-
.	.	4g\	re-	4b\	-ve	.	2ee\	.	.
.	.	4e\	-fo-	4g\	fle-	.	.	.	.
!	!	!LO:TX:t=P:problem:kreska pseudotaktowa	!	!	!	!	!	!	!
.	.	2a\	-ve	1cc\	.	.	4dd\	.	.
!	!	!	!	!	!	!	!LO:TX:t=P:problem:kreska pseudotaktowa	!	!
.	.	.	.	.	.	.	4cc\	.	.
!LO:TX:t=P:problem:kreska pseudotaktowa	!	!	!	!	!	!	!	!	!
0r	.	2.g\	fle-	.	.	.	2.dd\	.	.
!	!	!	!	!LO:TX:t=P:problem:kreska pseudotaktowa	!	!	!	!	!
.	.	.	.	2b\	-bi-	.	.	.	.
.	.	4g\	-bi-	.	.	.	4dd\	-bi-	.
=34-	=34-	=34-	=34-	=34-	=34-	=34-	=34-	=34-	=34-
!	!	!LO:TX:t=P:problem:kreska pseudotaktowa	!	!	!	!	!LO:TX:t=P:problem:kreska pseudotaktowa	!	!
.	.	1c\	-les	2cc\	-les	.	1ee\	-les	.
.	.	.	.	2c/	o-	.	.	.	.
!LO:LB:g=original	!	!	!	!LO:LB:g=original	!	!	!	!	!
!	!	!	!	!	!	!	!LO:TX:t=P:problem:kreska pseudotaktowa	!	!
!	!	!LO:TX:t=P:problem:kreska pseudotaktowa	!	!	!	!	!LO:TX:a:t=2	!	!
1C/	o-	1r	.	2c/	-ra	.	0r	.	.
.	.	.	.	2d/	pro	.	.	.	.
=35-	=35-	=35-	=35-	=35-	=35-	=35-	=35-	=35-	=35-
*	*	*	*	*^	*	*	*	*	*
!	!	!	!	!LO:TX:t=P:problem:kreska pseudotaktowa:między nutą a kropką	!	!	!	!	!	!
2C/	-ra	1G/	o-	1.e/	2e/	po-	.	.	.	.
!LO:TX:t=P:problem:kreska pseudotaktowa	!	!	!	!	!	!	!	!	!	!
2D/	pro	.	.	.	2e/	.	.	.	.	.
1.E/	po-	2G/	-ra	.	2e/	.	.	1g/	o-	.
!	!	!LO:TX:t=P:problem:kreska pseudotaktowa	!	!	!	!	!	!	!	!
.	.	2A/	pro	2f/	2ryy	-pu-	.	.	.	.
=36-	=36-	=36-	=36-	=36-	=36-	=36-	=36-	=36-	=36-	=36-
!	!	!	!	!LO:TX:t=P:problem:kreska pseudotaktowa:między nutą a kropką	!	!	!	!	!	!
.	.	1.B/	po-	1.g/	2g/	-lo	.	2g/	-ra	.
!LO:TX:t=P:problem:kreska pseudotaktowa	!	!	!	!	!	!	!	!	!	!
!LO:TX:t=P:problem:♯ above	!	!	!	!	!	!	!	!LO:TX:t=P:problem:kreska pseudotaktowa	!	!
2F#X/	-pu-	.	.	.	2g/	.	.	2a/	pro	.
1.G\	-lo	.	.	.	2g/	.	.	1.b\	po-	.
!	!	!LO:TX:t=P:problem:kreska pseudotaktowa	!	!LO:TX:t=P:problem:kreska pseudotaktowa	!	!	!	!	!	!
.	.	2c/	-pu-	2a\	2ryy	o-	.	.	.	.
*	*	*	*	*v	*v	*	*	*	*	*
=37-	=37-	=37-	=37-	=37-	=37-	=37-	=37-	=37-	=37-
.	.	2d\	-lo	2b\	-ra	.	.	.	.
!LO:TX:t=P:problem:kreska pseudotaktowa	!	!	!	!LO:TX:t=P:problem:kreska pseudotaktowa	!	!	!LO:TX:t=P:problem:kreska pseudotaktowa	!	!
2A\	o-	2d\	o-	2b\	.	.	2cc\	-pu-	.
!	!	!LO:TX:t=P:problem:kreska pseudotaktowa	!	!	!	!	!	!	!
1.B\	-ra	1G/	-ra	2b\	pro	.	1.dd\	-lo	.
!	!	!	!	!LO:TX:t=P:problem:kreska pseudotaktowa	!	!	!	!	!
.	.	.	.	2cc\	.	.	.	.	.
=38-	=38-	=38-	=38-	=38-	=38-	=38-	=38-	=38-	=38-
.	.	2g\	pro	2dd\	po-	.	.	.	.
!LO:TX:t=P:problem:kreska pseudotaktowa	!	!	!	!	!	!	!LO:TX:t=P:problem:kreska pseudotaktowa	!	!
2c\	pro	1g\	po-	(4cc\	-pu-	.	2ee\	o-	.
!	!	!	!	!LO:TX:t=P:problem:kreska pseudotaktowa	!	!	!	!	!
.	.	.	.	4b\)	.	.	.	.	.
1d\	po-	.	.	1a\	-lo	.	1.dd\	-ra	.
.	.	(4f\	-pu-	.	.	.	.	.	.
!	!	!LO:TX:t=P:problem:kreska pseudotaktowa	!	!	!	!	!	!	!
.	.	4e\)	.	.	.	.	.	.	.
=39-	=39-	=39-	=39-	=39-	=39-	=39-	=39-	=39-	=39-
2d\	-pu-	2f\	-lo	4a\	o-	.	.	.	.
.	.	.	.	2b\	.	.	.	.	.
!LO:TX:t=P:problem:kreska pseudotaktowa	!	!	!	!	!	!	!LO:TX:t=P:problem:kreska pseudotaktowa	!	!
2c\	-lo	2e\	o-	.	.	.	2ee\	pro	.
.	.	.	.	2a\	.	.	.	.	.
!	!	!LO:LB:g=original	!	!	!	!	!	!	!
2B\	o-	2g\	.	.	.	.	2dd\	po-	.
.	.	.	.	2g\	.	.	.	.	.
!	!	!LO:TX:t=P:problem:kreska pseudotaktowa	!	!	!	!	!LO:TX:t=P:problem:kreska pseudotaktowa	!	!
2A\	-ra	2a\	.	.	.	.	2cc\	-pu-	.
!	!	!	!	!LO:TX:t=P:problem:kreska pseudotaktowa	!	!	!	!	!
.	.	.	.	4f#X/	.	.	.	.	.
=40-	=40-	=40-	=40-	=40-	=40-	=40-	=40-	=40-	=40-
2G\	o-	2d\	.	1g\	-ra	.	2b/	-lo	.
!LO:TX:t=P:problem:kreska pseudotaktowa	!	!LO:TX:t=P:problem:kreska pseudotaktowa	!	!	!	!	!LO:TX:t=P:problem:kreska pseudotaktowa	!	!
2C/	-ra	2e\	-ra	.	.	.	2cc\	pro	.
4E/	pro	4c\	pro	4f/	o-	.	4a/	po-	.
4F\	.	4f\	.	4a\	.	.	2cc\	.	.
!	!	!	!	!LO:TX:t=P:problem:kreska pseudotaktowa	!	!	!	!	!
4.G\	po-	4.d\	po-	2g/	-ra	.	.	.	.
!	!	!	!	!	!	!	!LO:TX:t=P:problem:kreska pseudotaktowa	!	!
!	!	!	!	!	!	!	!LO:SIC:v:t=custos cc	!	!
.	.	.	.	.	.	.	4b\	-pu-	.
!LO:TX:t=P:problem:kreska pseudotaktowa	!	!	!	!	!	!	!	!	!
8G\	-pu-	8d\	-pu-	.	.	.	.	.	.
!	!	!	!	!	!	!	!LO:LB:g=original	!	!
=41-	=41-	=41-	=41-	=41-	=41-	=41-	=41-	=41-	=41-
!	!	!LO:TX:t=P:problem:kreska pseudotaktowa	!	!	!	!	!	!	!
1C/	-lo	1e\	-lo	2g/	pro	.	2cc\	-lo	.
!	!	!	!	!LO:LB:g=original	!	!	!	!	!
.	.	.	.	(4c/	po-	.	1gg\	in-	.
!	!	!	!	!LO:TX:t=P:problem:kreska pseudotaktowa	!	!	!	!	!
.	.	.	.	4d/)	.	.	.	.	.
!LO:TX:t=P:problem:kreska pseudotaktowa	!	!	!	!	!	!	!	!	!
1c\	in-	1r	.	(2e/	-pu-	.	.	.	.
!	!	!	!	!	!	!	!LO:TX:t=P:problem:kreska pseudotaktowa	!	!
.	.	.	.	2f/)	.	.	2ff\	-ter-	.
!LO:LB:g=original	!	!	!	!	!	!	!	!	!
=42-	=42-	=42-	=42-	=42-	=42-	=42-	=42-	=42-	=42-
*	*	*	*	*^	*	*	*	*	*
!	!	!	!	!LO:TX:t=P:problem:kreska pseudotaktowa	!	!	!	!	!	!
2c\	-ter-	2r	.	1g/	2g/	-lo	.	1.ee\	-ve-	.
!LO:TX:t=P:problem:kreska pseudotaktowa	!	!	!	!	!	!	!	!	!	!
2B\	-ve-	1g\	in-	.	2g/	.	.	.	.	.
1A\	-ni	.	.	1.cc/	2cc\	in-	.	.	.	.
!	!	!LO:TX:t=P:problem:kreska pseudotaktowa	!	!	!	!	!	!LO:TX:t=P:problem:kreska pseudotaktowa	!	!
.	.	2f\	-ter-	.	2cc\	.	.	2dd\	-ni	.
=43-	=43-	=43-	=43-	=43-	=43-	=43-	=43-	=43-	=43-	=43-
*	*	*	*	*	*	*	*	*	*ij	*
2A\	in-	1.e\	-ve-	.	2cc\	.	.	1.cc\	in-	.
!LO:TX:t=P:problem:kreska pseudotaktowa	!	!	!	!LO:TX:t=P:problem:kreska pseudotaktowa	!	!	!	!	!	!
2G\	-ter-	.	.	2b\	2ryy	-ter-	.	.	.	.
1.F\	-ve-	.	.	1.a/	2a\	-ve-	.	.	.	.
!	!	!LO:TX:t=P:problem:kreska pseudotaktowa	!	!	!	!	!	!LO:TX:t=P:problem:kreska pseudotaktowa	!	!
.	.	2d\	-ni	.	2a\	.	.	2b/	-ter-	.
=44-	=44-	=44-	=44-	=44-	=44-	=44-	=44-	=44-	=44-	=44-
.	.	1.c\	in-	.	2a\	.	.	1.a/	-ve-	.
!	!	!	!	!LO:TX:t=P:problem:kreska pseudotaktowa	!	!	!	!	!	!
!LO:TX:t=P:problem:kreska pseudotaktowa	!	!	!	!LO:TX:t=P:problem:w drugim wersie dopisany tekst	!	!	!	!	!	!
*	*	*	*	*	*	*	*ij	*	*	*
2E/	-ni	.	.	2g\	2ryy	-ni	in-	.	.	.
1.D/	pro	.	.	2.f/	2f/	pro	-ter-	.	.	.
!	!	!LO:TX:t=P:problem:kreska pseudotaktowa	!	!	!	!	!	!LO:TX:t=P:problem:kreska pseudotaktowa	!	!
.	.	2B/	-ter-	.	4f/	.	.	2g/	-ni	.
*	*	*	*	*	*	*	*	*	*Xij	*
!	!	!	!	!LO:TX:t=P:problem:kreska pseudotaktowa	!	!	!	!	!	!
.	.	.	.	4e/	4ryy	.	-ve-	.	.	.
*	*	*	*	*v	*v	*	*	*	*	*
=45-	=45-	=45-	=45-	=45-	=45-	=45-	=45-	=45-	=45-
.	.	1A/	-ve-	2d/	cle-	-ni	2f#X/	pro	.
*	*	*	*	*	*	*Xij	*	*	*
!LO:TX:t=P:problem:kreska pseudotaktowa	!	!	!	!LO:TX:t=P:problem:kreska pseudotaktowa	!	!	!	!	!
2C/	cle-	.	.	2e/	.	pro	(1a/	cle-	.
2BB/	-ro	2.d\	-ni	1d/	.	cle-	.	.	.
!LO:TX:t=P:problem:kreska pseudotaktowa	!	!	!	!	!	!	!LO:TX:t=P:problem:kreska pseudotaktowa	!	!
2B\	in-	.	.	.	.	.	2g/)	.	.
!	!	!LO:TX:t=P:problem:kreska pseudotaktowa	!	!	!	!	!	!	!
.	.	4d\	pro	.	.	.	.	.	.
=46-	=46-	=46-	=46-	=46-	=46-	=46-	=46-	=46-	=46-
!	!	!LO:TX:b:t=P:problem:♯ below	!	!	!	!	!	!	!
4.A\	-ter-	2c#X/	cle-	2e/	-ro	-ro	2a/	-ro	.
8A\	-ve-	.	.	.	.	.	.	.	.
!LO:TX:t=P:problem:kreska pseudotaktowa	!	!	!	!LO:TX:t=P:problem:kreska pseudotaktowa	!	!	!LO:TX:t=P:problem:kreska pseudotaktowa	!	!
2G\	-ni	1d\	.	2g/	in-	.	2b-X/	pro	.
2.A\	p(ro)	.	.	2f/	-ter-	.	1a/	cle-	.
!	!	!LO:TX:t=P:problem:kreska pseudotaktowa	!	!	!	!	!	!	!
!	!	!LO:TX:b:t=P:problem:♯ below	!	!LO:TX:t=P:problem:kreska pseudotaktowa	!	!	!	!	!
.	.	2c#X/	.	2e/	-ve-	.	.	.	.
!LO:TX:t=P:problem:kreska pseudotaktowa	!	!	!	!	!	!	!	!	!
4A\	cle-	.	.	.	.	.	.	.	.
=47-	=47-	=47-	=47-	=47-	=47-	=47-	=47-	=47-	=47-
2D/	-ro	1d\	-ro	4f#X/	-ni	.	2a/	-ro	.
.	.	.	.	4dd\	in-	.	.	.	.
!	!	!	!	!LO:TX:t=P:problem:kreska pseudotaktowa	!	!	!LO:TX:t=P:problem:kreska pseudotaktowa	!	!
2d\	in-	.	.	2a\	-ter-	.	2ff\	in-	.
!	!	!LO:LB:g=original	!	!	!	!	!	!	!
4A\	-ter-	4r	.	2cc\	-ve-	.	2.ee\	-ter-	.
!	!	!LO:TX:t=P:problem:kreska pseudotaktowa	!	!	!	!	!	!	!
4A\	-ve-	4a\	in-	.	.	.	.	.	.
!	!	!	!	!LO:LB:g=original	!	!	!	!	!
!LO:TX:t=P:problem:kreska pseudotaktowa	!	!	!	!	!	!	!	!	!
2c\	-ni	4.e\	-ter-	4g\	-ni	.	.	.	.
!	!	!	!	!LO:TX:t=P:problem:kreska pseudotaktowa	!	!	!LO:TX:t=P:problem:kreska pseudotaktowa	!	!
.	.	.	.	4cc\	in-	.	4ee\	-ve-	.
.	.	8e\	-ve-	.	.	.	.	.	.
=48-	=48-	=48-	=48-	=48-	=48-	=48-	=48-	=48-	=48-
!	!	!LO:TX:t=P:problem:kreska pseudotaktowa	!	!	!	!	!	!	!
1G\	in-	2g\	-ni	2b\	-ter-	.	2dd\	-ni	.
!	!	!	!	!LO:TX:t=P:problem:kreska pseudotaktowa	!	!	!	!	!
!	!	!	!	!LO:TX:t=P:problem:♭ above	!	!	!LO:SIC:v:t=custos a	!	!
.	.	2g\	pro	2b-X\	-ve-	.	1dd\	pro	.
4D/	-ter-	1f\	cle-	2a\	-ni	.	.	.	.
4D/	-ve-	.	.	.	.	.	.	.	.
!	!	!	!	!	!	!	!LO:LB:g=original	!	!
2F/	-ni	.	.	(4a\	pro	.	[4a/	cle-	.
!	!	!	!	!LO:TX:t=P:problem:kreska pseudotaktowa	!	!	!LO:TX:t=P:problem:kreska pseudotaktowa	!	!
.	.	.	.	4f/)	.	.	4a/]	.	.
!LO:LB:g=original	!	!	!	!	!	!	!	!	!
=49-	=49-	=49-	=49-	=49-	=49-	=49-	=49-	=49-	=49-
!	!	!LO:TX:t=P:problem:kreska pseudotaktowa	!	!	!	!	!	!	!
1C/	pro	2e\	-ro	2g/	cle-	.	2cc\	-ro	.
.	.	4c\	in-	4e/	-ro	.	4g/	in-	.
!	!	!	!	!LO:TX:t=P:problem:kreska pseudotaktowa	!	!	!LO:TX:t=P:problem:kreska pseudotaktowa	!	!
.	.	4e\	-ter-	4g\	in-	.	4cc\	-ter-	.
2F/	cle-	4c\	-ve-	4f/	-ter-	.	4a/	-ve-	.
!	!	!LO:TX:t=P:problem:kreska pseudotaktowa	!	!	!	!	!	!	!
.	.	4c\	-ni	4f/	-ve-	.	4a/	-ni	.
!LO:TX:t=P:problem:kreska pseudotaktowa:między nutą a kropką	!	!	!	!LO:TX:t=P:problem:kreska pseudotaktowa	!	!	!LO:TX:t=P:problem:kreska pseudotaktowa	!	!
2.D/	-ro	2.d\	pro	2f/	-ni	.	2a/	pro	.
=50-	=50-	=50-	=50-	=50-	=50-	=50-	=50-	=50-	=50-
.	.	.	.	(4f/	pro	.	1a/	cle-	.
!	!	!LO:TX:t=P:problem:kreska pseudotaktowa	!	!	!	!	!	!	!
4E/	pro	4c\	.	4e/)	.	.	.	.	.
!LO:TX:t=P:problem:kreska pseudotaktowa	!	!	!	!	!	!	!	!	!
2F/	cle-	2A/	cle-	4c/	cle-	.	.	.	.
.	.	.	.	4d/	.	.	.	.	.
!	!	!LO:TX:t=P:problem:kreska pseudotaktowa	!	!LO:TX:t=P:problem:kreska pseudotaktowa	!	!	!LO:TX:t=P:problem:kreska pseudotaktowa	!	!
2E/	-ro	2B/	-ro	1e/	-ro	.	1g#X/	-ro.	.
4r	.	4r	.	.	.	.	.	.	.
!LO:TX:t=P:problem:kreska pseudotaktowa	!	!	!	!	!	!	!	!	!
4E/	in-	4B/	in-	.	.	.	.	.	.
=51-	=51-	=51-	=51-	=51-	=51-	=51-	=51-	=51-	=51-
!	!	!	!	!LO:TX:t=P:problem:kreska pseudotaktowa	!	!	!	!	!
(4F#X\	-ter-	4d\	-ter-	1r	.	.	1r	.	.
!	!	!LO:TX:t=P:problem:kreska pseudotaktowa	!	!	!	!	!	!	!
4A\)	.	4c\	.	.	.	.	.	.	.
2G#X\	-ce-	4e\	.	.	.	.	.	.	.
.	.	4d\	.	.	.	.	.	.	.
!LO:TX:t=P:problem:kreska pseudotaktowa	!	!LO:TX:t=P:problem:kreska pseudotaktowa	!	!	!	!	!	!	!
1A\	-de	2c#X/	-ce-	2r	.	.	2r	.	.
!	!	!	!	!LO:LB:g=original	!	!	!	!	!
!	!	!	!	!LO:TX:t=P:problem:kreska pseudotaktowa	!	!	!LO:TX:t=P:problem:kreska pseudotaktowa	!	!
.	.	2cn/	-de	2e/	in-	.	2a/	in-	.
=52-	=52-	=52-	=52-	=52-	=52-	=52-	=52-	=52-	=52-
!	!	!LO:TX:t=P:problem:kreska pseudotaktowa	!	!	!	!	!	!	!
4G\	in-	2d\	in-	4g\	-ter-	.	(4b\	-ter-	.
4B\	.	.	.	4f\	.	.	4dd\)	.	.
!	!	!LO:LB:g=original	!	!	!	!	!	!	!
!LO:TX:t=P:problem:kreska pseudotaktowa	!	!	!	!	!	!	!LO:TX:t=P:problem:kreska pseudotaktowa	!	!
2A\	-ter-	2e\	-ter-	4a\	.	.	2cc#X\	-ce-	.
!	!	!	!	!LO:TX:t=P:problem:kreska pseudotaktowa	!	!	!	!	!
.	.	.	.	4g\	.	.	.	.	.
!	!	!LO:TX:t=P:problem:kreska pseudotaktowa:między nutą a kropką	!	!	!	!	!	!	!
2D/	-ce-	2.d\	-ce-	2f#X/	.	.	4.dd\	-de	.
.	.	.	.	.	.	.	8ccny\	.	.
!	!	!	!	!LO:TX:t=P:problem:kreska pseudotaktowa	!	!	!	!	!
2.G\	-de	.	.	2g/	-ce-	.	4b/	.	.
!	!	!	!	!	!	!	!LO:TX:t=P:problem:kreska pseudotaktowa	!	!
.	.	4c\	.	.	.	.	4a/	.	.
=53-	=53-	=53-	=53-	=53-	=53-	=53-	=53-	=53-	=53-
.	.	4B/	.	2d/	-de	.	(4g/	in-	.
4F\	.	4A/	.	.	.	.	4a/)	.	.
!LO:TX:t=P:problem:kreska pseudotaktowa	!	!	!	!LO:TX:t=P:problem:kreska pseudotaktowa	!	!	!	!	!
2E/	.	2G/	.	2g/	in-	.	(4b\	-ter-	.
!	!	!	!	!	!	!	!LO:TX:t=P:problem:kreska pseudotaktowa	!	!
.	.	.	.	.	.	.	4cc\)	.	.
!	!	!LO:TX:t=P:problem:kreska pseudotaktowa	!	!	!	!	!	!	!
2D/	.	2A/	.	2f#X/	-ter-	.	(<2.dd\	-ce-	.
!LO:TX:t=P:problem:kreska pseudotaktowa	!	!	!	!LO:TX:t=P:problem:kreska pseudotaktowa	!	!	!	!	!
2d\	pro	2B-X/	.	2g/	-ce-	.	.	.	.
.	.	.	.	.	.	.	4g/)	.	.
=54-	=54-	=54-	=54-	=54-	=54-	=54-	=54-	=54-	=54-
*	*	*	*	*^	*	*	*	*	*
!	!	!LO:TX:t=P:problem:kreska pseudotaktowa	!	!	!	!	!	!LO:TX:t=P:problem:kreska pseudotaktowa	!	!
2c#X\	de-	1.A/	-de	2g/	1ryy	.	.	0a/	-de	.
!	!	!	!	!LO:TX:t=P:problem:kreska pseudotaktowa	!	!	!	!	!	!
1d\	-vo-	.	.	2f/	.	.	.	.	.	.
.	.	.	.	1e/	2e/	.	.	.	.	.
!LO:TX:t=P:problem:kreska pseudotaktowa	!	!	!	!	!	!	!	!	!	!
2cny\	.	2a\	pro	.	2e/	.	.	.	.	.
*	*	*	*	*v	*v	*	*	*	*	*
!LO:LB:g=original	!	!	!	!	!	!	!LO:LB:g=original	!	!
=55-	=55-	=55-	=55-	=55-	=55-	=55-	=55-	=55-	=55-
!	!	!	!	!LO:TX:t=P:problem:kreska pseudotaktowa	!	!	!	!	!
1B\	-to	4g\	de-	1d/	-de	.	2r	.	.
.	.	2a\	.	.	.	.	.	.	.
.	.	.	.	.	.	.	1dd\	pro	.
!	!	!LO:TX:t=P:problem:kreska pseudotaktowa	!	!	!	!	!	!	!
.	.	4g\	.	.	.	.	.	.	.
!	!	!LO:TX:t=P:problem:kreska pseudotaktowa	!	!	!	!	!	!	!
2A\	pro	2f\	.	0r	.	.	.	.	.
!LO:TX:t=P:problem:kreska pseudotaktowa	!	!	!	!	!	!	!LO:TX:t=P:problem:kreska pseudotaktowa	!	!
2A\	de-	2e\	.	.	.	.	2cc\	de-	.
=56-	=56-	=56-	=56-	=56-	=56-	=56-	=56-	=56-	=56-
2A\	-vo-	1f\	-vo-	.	.	.	2dd\	-vo-	.
2G\	.	.	.	.	.	.	1dd\	-to	.
!LO:TX:t=P:problem:kreska pseudotaktowa	!	!LO:TX:t=P:problem:kreska pseudotaktowa	!	!	!	!	!	!	!
1A\	-to	2e\	-to	2r	.	.	.	.	.
!	!	!	!	!LO:TX:t=P:problem:kreska pseudotaktowa	!	!	!LO:TX:t=P:problem:kreska pseudotaktowa	!	!
.	.	2e\	pro	2a\	pro	.	2cc\	de-	.
=57-	=57-	=57-	=57-	=57-	=57-	=57-	=57-	=57-	=57-
0r	.	(2e\	de-	2g#X/	de-	.	0b\	-vo-	.
.	.	2d\)	.	1a\	-vo-	.	.	.	.
.	.	1e\	-vo-	.	.	.	.	.	.
!	!	!	!	!LO:TX:t=P:problem:kreska pseudotaktowa	!	!	!	!	!
!	!	!	!	!LO:TX:t=P:problem:♯ above	!	!	!	!	!
.	.	.	.	2g#X/	.	.	.	.	.
=58-	=58-	=58-	=58-	=58-	=58-	=58-	=58-	=58-	=58-
!	!	!	!	!LO:TX:a:t=2	!	!	!LO:TX:t=P:problem:kreska pseudotaktowa	!	!
2r	.	1A/	-to	0a\	-to	.	0cc#X\	-to,	.
!LO:TX:t=P:problem:kreska pseudotaktowa	!	!	!	!	!	!	!	!	!
2A\	fe-	.	.	.	.	.	.	.	.
2.A\	-mi-	2r	.	.	.	.	.	.	.
.	.	2e\	Fe-	.	.	.	.	.	.
4A\	-ne-	.	.	.	.	.	.	.	.
!	!	!LO:PB:g=original	!	!LO:LB:g=original	!	!	!	!	!
=59-	=59-	=59-	=59-	=59-	=59-	=59-	=59-	=59-	=59-
!LO:TX:t=P:problem:kreska pseudotaktowa	!	!	!	!LO:TX:t=P:problem:kreska pseudotaktowa	!	!	!	!	!
1G\	-o	2.e\	-mi-	1r	.	.	0r	.	.
.	.	4e\	-ne-	.	.	.	.	.	.
1F\	Se-	2d\	-o	1a\	Fe-	.	.	.	.
.	.	2d\	Se-	.	.	.	.	.	.
=60-	=60-	=60-	=60-	=60-	=60-	=60-	=60-	=60-	=60-
!LO:TX:t=P:problem:kreska pseudotaktowa	!	!	!	!	!	!	!	!	!
0E/	-xu	2c/	-xu	2a\	-mi-	.	1ee\	fe-	.
!	!	!	!	!LO:TX:t=P:problem:kreska pseudotaktowa	!	!	!	!	!
.	.	2c/	fe-	2a\	-ne-	.	.	.	.
.	.	2.B/	-mi-	1g\	-o	.	2.ee\	-mi-	.
!	!	!	!	!	!	!	!LO:TX:t=P:problem:kreska pseudotaktowa	!	!
.	.	4B/	-ne-	.	.	.	4ee\	-ne-	.
=61-	=61-	=61-	=61-	=61-	=61-	=61-	=61-	=61-	=61-
1r	.	4B/	-o	1f/	Se-	.	1dd\	-o	.
.	.	2c/	.	.	.	.	.	.	.
.	.	4B/	.	.	.	.	.	.	.
!	!	!	!	!LO:TX:t=P:problem:kreska pseudotaktowa	!	!	!LO:TX:t=P:problem:kreska pseudotaktowa	!	!
2r	.	2c/	Se-	1e/	-xu	.	1cc\	Se-	.
!LO:TX:t=P:problem:kreska pseudotaktowa	!	!	!	!	!	!	!	!	!
2e\	fe-	2A/	.	.	.	.	.	.	.
=62-	=62-	=62-	=62-	=62-	=62-	=62-	=62-	=62-	=62-
2.e\	-mi-	0G/	-xu	1g\	fe-	.	2b/	-xu	.
.	.	.	.	.	.	.	2.b/	fe-	.
4e\	-ne-	.	.	.	.	.	.	.	.
!LO:TX:t=P:problem:kreska pseudotaktowa	!	!	!	!	!	!	!	!	!
1d\	-o	.	.	2g/	-mi-	.	.	.	.
.	.	.	.	.	.	.	2cc\	-mi-	.
!	!	!	!	!LO:TX:t=P:problem:kreska pseudotaktowa	!	!	!	!	!
.	.	.	.	2g/	-ne-	.	.	.	.
!	!	!	!	!	!	!	!LO:TX:t=P:problem:kreska pseudotaktowa	!	!
.	.	.	.	.	.	.	4b\	-ne-	.
=63-	=63-	=63-	=63-	=63-	=63-	=63-	=63-	=63-	=63-
1c\	Se-	1r	.	4g/	-o	.	2cc\	-o	.
.	.	.	.	4e/	.	.	.	.	.
.	.	.	.	1a\	Se-	.	4cc\	Se-	.
.	.	.	.	.	.	.	4a/	.	.
!LO:TX:t=P:problem:kreska pseudotaktowa	!	!	!	!	!	!	!	!	!
!LO:SIC:v:t=custos B	!	!	!	!	!	!	!LO:TX:t=P:problem:kreska pseudotaktowa	!	!
1B\	-xu	2r	.	.	.	.	1dd\	-xu	.
.	.	2.d\	Sen-	4g#X/	.	.	.	.	.
!	!	!	!	!LO:TX:t=P:problem:kreska pseudotaktowa	!	!	!	!	!
!	!	!	!	!LO:TX:b:t=P:problem:♯ below	!	!	!	!	!
.	.	.	.	4f#X/	.	.	.	.	.
!LO:LB:g=original	!	!	!	!	!	!	!	!	!
=64-	=64-	=64-	=64-	=64-	=64-	=64-	=64-	=64-	=64-
!	!	!	!	!	!	!	!LO:SIC:v:t=custos aa	!	!
4B\	Sen-	.	.	2g#X,/	-xu	.	1r	.	.
2d\	.	4B/	-ti-	.	.	.	.	.	.
.	.	2e\	-ant	4.g#/	Sen-	.	.	.	.
!LO:TX:t=P:problem:kreska pseudotaktowa	!	!	!	!	!	!	!	!	!
4c#X\	-ti-	.	.	.	.	.	.	.	.
!	!	!	!	!LO:TX:t=P:problem:kreska pseudotaktowa	!	!	!	!	!
.	.	.	.	8e/	-ti-	.	.	.	.
!	!	!	!	!	!	!	!LO:PB:g=original	!	!
2d\	-ant	[>&[<2f\	o-	2a\	-ant	.	2r	.	.
!LO:TX:t=P:problem:kreska pseudotaktowa	!	!	!	!LO:TX:t=P:problem:kreska pseudotaktowa	!	!	!	!	!
2A\	o-	2f\]>&]<	-[[mnes]-	2cc\	o-	.	2.aa\	Sen-	.
=65-	=65-	=65-	=65-	=65-	=65-	=65-	=65-	=65-	=65-
1.c\	-mnes	4.e\	mnes	2cc\	-mnes	.	.	.	.
.	.	.	.	.	.	.	4aa\	-ti-	.
.	.	8e\	.	.	.	.	.	.	.
!	!	!	!	!LO:LB:g=original	!	!	!	!	!
.	.	2.f\	Sen-	2.cc\	Sen-	.	2aa\	-ant	.
.	.	.	.	.	.	.	1gg\	o-	.
!	!	!LO:TX:t=P:problem:2 z chorągiewką	!	!	!	!	!	!	!
.	.	4f\	-ti-	4cc\	-ti-	.	.	.	.
!	!	!	!	!LO:TX:t=P:problem:kreska pseudotaktowa	!	!	!	!	!
(4c\	o-	2e\	-ant	2g/	-ant	.	.	.	.
!LO:TX:t=P:problem:kreska pseudotaktowa	!	!	!	!	!	!	!	!	!
4B\)	.	.	.	.	.	.	.	.	.
!	!	!LO:LB:g=original	!	!	!	!	!	!	!
=66-	=66-	=66-	=66-	=66-	=66-	=66-	=66-	=66-	=66-
2A\	-mnes	4f\	o-	4a\	o-	.	1ff\	-mnes	.
.	.	4c\	.	4g\	.	.	.	.	.
!	!	!	!	!LO:TX:t=P:problem:kreska pseudotaktowa	!	!	!	!	!
*	*ij	*	*	*	*	*	*	*	*
4B-X\	o-	4d\	.	2f/	-mnes	.	.	.	.
!LO:TX:t=P:problem:kreska pseudotaktowa	!	!	!	!	!	!	!	!	!
4A\	.	4c\	.	.	.	.	.	.	.
2G\	-mnes	2B/	-mnes	(4g/	o-	.	2.ee\	Sen-	.
.	.	.	.	4f/)	.	.	.	.	.
!LO:TX:t=P:problem:kreska pseudotaktowa	!	!	!	!LO:TX:t=P:problem:kreska pseudotaktowa	!	!	!	!	!
2A\	o-	4c/	o-	2e/	-mnes	.	.	.	.
.	.	4B/	.	.	.	.	4ee\	-ti-	.
=67-	=67-	=67-	=67-	=67-	=67-	=67-	=67-	=67-	=67-
2D/	-mnes	2A/	-[[mnes]-	4f/	tu-	.	2dd\	-ant	.
*	*Xij	*	*	*	*	*	*	*	*
.	.	.	.	4e/	.	.	.	.	.
!	!	!	!	!LO:TX:t=P:problem:kreska pseudotaktowa	!	!	!	!	!
1G\	tu-	4B/	.	2d/	-um	.	4dd\	o-	.
.	.	4A/	.	.	.	.	4cc\	.	.
.	.	1G/	-mnes	2d/	ju-	.	2b/	-mnes	.
1C/	-um	.	.	2e/	-va-	.	4cc\	o-	.
.	.	.	.	.	.	.	4b\	.	.
=68-	=68-	=68-	=68-	=68-	=68-	=68-	=68-	=68-	=68-
.	.	00r	.	2f#X/	-men	.	2a/	-mnes	.
!LO:TX:t=P:problem:kreska pseudotaktowa	!	!	!	!LO:TX:t=P:problem:kreska pseudotaktowa:między nutą a kropką	!	!	!	!	!
2BB/	iu-	.	.	2.g/	Sen-	.	2b/	o-	.
1D/	-va-	.	.	.	.	.	1a/	-mnes	.
.	.	.	.	4f#/	-ti-	.	.	.	.
!	!	!	!	!LO:TX:t=P:problem:kreska pseudotaktowa	!	!	!	!	!
.	.	.	.	2f#X/	-ant	.	.	.	.
=69-	=69-	=69-	=69-	=69-	=69-	=69-	=69-	=69-	=69-
2GG/	-men	.	.	2g\	o-	.	2b/	tu-	.
2.G\	ſen-	.	.	1g\	-mnes	.	2b/	-u(m)	.
.	.	.	.	.	.	.	2cc#X\	Ju-	.
4G\	-ti-	.	.	.	.	.	.	.	.
!LO:TX:t=P:problem:kreska pseudotaktowa	!	!	!	!LO:TX:t=P:problem:kreska pseudotaktowa	!	!	!	!	!
2F/	-ant	.	.	2a\	tu-	.	2dd\	-va-	.
=70-	=70-	=70-	=70-	=70-	=70-	=70-	=70-	=70-	=70-
!	!	!	!	!LO:SIC:v:t=custos g	!	!	!	!	!
2E/	o-	2r	.	2b\	-um	.	2.g/	-men	.
!LO:PB:g=original	!	!	!	!LO:LB:g=original	!	!	!	!	!
!LO:TX:t=P:problem:kreska pseudotaktowa	!	!	!	!	!	!	!	!	!
2E/	-mnes	2B/	tu-	1g\	tu-	.	.	.	.
.	.	.	.	.	.	.	4b\	.	.
(2E/	tu-	2c#X/	-u(m)	.	.	.	2a/	O-	.
!LO:TX:t=P:problem:kreska pseudotaktowa	!	!	!	!LO:TX:t=P:problem:kreska pseudotaktowa	!	!	!	!	!
2D/)	.	2d\	tu-	2f/	-u(m)	.	2b/	-mnes	.
!	!	!	!	!	!	!	!LO:LB:g=original	!	!
=71-	=71-	=71-	=71-	=71-	=71-	=71-	=71-	=71-	=71-
2E/	-um	2G/	-u(m)	1e/	ju-	.	2b/	tu-	.
2E/	iu-	2c/	ju-	.	.	.	2.a/	-u(m)	.
1E/	-va-	1B/	-va-	1e/	-va-	.	.	.	.
.	.	.	.	.	.	.	4a/	Ju-	.
.	.	.	.	.	.	.	2g#X/	-va-	.
=72-	=72-	=72-	=72-	=72-	=72-	=72-	=72-	=72-	=72-
!	!	!	!	!LO:TX:t=P:problem:kreska pseudotaktowa	!	!	!	!	!
!LO:TX:t=P:problem:kreska pseudotaktowa	!	!	!	!LO:TX:a:t=2	!	!	!	!	!
1AA/	-men	2A/	-men	0c#X/	-men	.	0a/	-men	.
.	.	1.A/	qui-	.	.	.	.	.	.
2r	.	.	.	.	.	.	.	.	.
2A\	qui-	.	.	.	.	.	.	.	.
=73-	=73-	=73-	=73-	=73-	=73-	=73-	=73-	=73-	=73-
2.A\	-cum-	1.B/	-cum-	0r	.	.	0r	.	.
!LO:TX:t=P:problem:kreska pseudotaktowa	!	!	!	!	!	!	!	!	!
4A\	-q(ue)	.	.	.	.	.	.	.	.
*	*ij	*	*	*	*	*	*	*	*
1G\	qui-	.	.	.	.	.	.	.	.
.	.	2B/	-q(ue)	.	.	.	.	.	.
=74-	=74-	=74-	=74-	=74-	=74-	=74-	=74-	=74-	=74-
!	!	!	!	!LO:TX:t=P:problem:kreska pseudotaktowa	!	!	!	!	!
2.G\	-cum-	2.c#X/	Ce-	1r	.	.	1a/	qui-	.
!LO:TX:t=P:problem:kreska pseudotaktowa	!	!	!	!	!	!	!	!	!
4G\	-q(ue)	4c#/	-le-	.	.	.	.	.	.
*	*Xij	*	*	*	*	*	*	*	*
!	!	!LO:LB:g=original	!	!	!	!	!	!	!
2.F/	ce-	(2d\	-brant	1a\	qui-	.	2a/	-cum-	.
.	.	2cny/)	.	.	.	.	2a/	-q(ue)	.
4F/	-le-	.	.	.	.	.	.	.	.
=75-	=75-	=75-	=75-	=75-	=75-	=75-	=75-	=75-	=75-
*	*	*	*	*^	*	*	*^	*	*
!	!	!	!	!	!	!	!	!LO:TX:t=P:problem:w drugim wersie skreślony tekst	!	!	!
!LO:TX:t=P:problem:kreska pseudotaktowa	!	!	!	!	!	!	!	!LO:TX:t=P:problem:w drugiej warstwie dodatkowy podział rytmiczny [zapisano po konsultacji z J.I.]:global	!	!	!
0E/	-brant	1.e\	ce-	2a\	1ryy	-Cum-	.	1b/	2.b/	ce-	[[qui-
!	!	!	!	!LO:TX:t=P:problem:kreska pseudotaktowa	!	!	!	!	!	!	!
.	.	.	.	2a\	.	-q(ue)	.	.	.	.	.
.	.	.	.	.	.	.	.	.	4b/	.	.
!	!	!	!	!LO:TX:t=P:problem:w drugim wersie skreślony tekst	!	!	!	!	!	!	!
.	.	.	.	1g/	2.g/	ce-	[[qui-	2b/	1ryy	-le-	-cum-
.	.	2e\	-le-	.	.	.	.	2b/	.	-brant	-q(ue)]]
.	.	.	.	.	4g/	.	.	.	.	.	.
*	*	*	*	*v	*v	*	*	*	*	*	*
=76-	=76-	=76-	=76-	=76-	=76-	=76-	=76-	=76-	=76-	=76-
00r	.	1A/	-brant	2g/	-le-	-cum-	2.cc#X\	1ryy	Ce-	.
!	!	!	!	!LO:TX:t=P:problem:kreska pseudotaktowa	!	!	!	!	!	!
.	.	.	.	2g/	-brant	-q(ue)	.	.	.	.
.	.	.	.	.	.	.	4cc#\	.	-le-	.
.	.	2r	.	2.f/	ce-	qui	1dd/	2.dd\	-brant	.
.	.	2a\	qui-	.	.	.	.	.	.	.
!	!	!	!	!LO:TX:t=P:problem:kreska pseudotaktowa	!	!	!	!	!	!
.	.	.	.	4f/	-le-	.	.	4dd\	.	.
*	*	*	*	*	*	*	*v	*v	*	*
=77-	=77-	=77-	=77-	=77-	=77-	=77-	=77-	=77-	=77-
.	.	2a\	-cum-	2e/	-brant	.	2ee\	qui-	.
.	.	2g\	-q(ue)	1e/	tu-	.	2b/	-cum-	.
.	.	(2g\	Ce-	.	.	.	2.cc\	-q(ue)	.
!	!	!	!	!LO:TX:t=P:problem:kreska pseudotaktowa	!	!	!	!	!
.	.	4.f\)	.	2a\	-a(m)	.	.	.	.
.	.	.	.	.	.	.	8b\L	.	.
.	.	8f\	-le-	.	.	.	8a\J	.	.
=78-	=78-	=78-	=78-	=78-	=78-	=78-	=78-	=78-	=78-
1E/	qui-	1e\	-brant	2a\	San-	.	1.b\	ce-	.
.	.	.	.	4g#X/	.	.	.	.	.
!	!	!	!	!LO:SIC:v:s=4f#	!	!	!	!	!
.	.	.	.	4f/	.	.	.	.	.
2E/	-cum-	2r	.	1g#X\	.	.	.	.	.
!LO:TX:t=P:problem:kreska pseudotaktowa	!	!	!	!	!	!	!	!	!
2E/	-q(ue)	2e\	/qui-	.	.	.	2b/	-le-	.
!	!	!	!	!LO:LB:g=original	!	!	!	!	!
=79-	=79-	=79-	=79-	=79-	=79-	=79-	=79-	=79-	=79-
!	!	!	!	!	!	!	!LO:SIC:v:t=custos aa	!	!
!LO:TX:t=P:problem: above	!	!	!	!	!	!	!LO:SIC:v:t=custos a	!	!
1F#X\	qui-	2e\	-cum-	1a\	-cta(m)	.	2a/	-brant	.
!	!	!	!	!	!	!	!LO:LB:g=original	!	!
.	.	2e\	-q(ue)	.	.	.	2a/	qui-	.
!LO:LB:g=original	!	!	!	!	!	!	!	!	!
2F#/	-cum-	1.d\	Ce-	1r	.	.	2aa\	-cum-	.
!LO:TX:t=P:problem:kreska pseudotaktowa	!	!	!	!	!	!	!	!	!
2F#/	-q(ue)	.	.	.	.	.	2aa\	-q(ue)	.
=80-	=80-	=80-	=80-	=80-	=80-	=80-	=80-	=80-	=80-
*	*	*	*	*^	*	*	*	*	*
2.G\	ce-	.	.	(4dd\	2ryy	Ce-	.	1.gg\	Ce-	.
!	!	!	!	!LO:TX:t=P:problem:kreska pseudotaktowa	!	!	!	!	!	!
.	.	.	.	4cc\)	.	-le-	.	.	.	.
.	.	2d\	-le-	1b-X/	2.b-\	-brant	.	.	.	.
4G\	-le-	.	.	.	.	.	.	.	.	.
!LO:TX:t=P:problem:kreska pseudotaktowa	!	!	!	!	!	!	!	!	!	!
1A\	-brant	1.c\	-brant/	.	.	.	.	.	.	.
!	!	!	!	!LO:TX:t=P:problem:kreska pseudotaktowa	!	!	!	!	!	!
.	.	.	.	.	4b-\	.	.	.	.	.
.	.	.	.	1a/	2a\	tu-	.	2gg\	-le-	.
=81-	=81-	=81-	=81-	=81-	=81-	=81-	=81-	=81-	=81-	=81-
1D/	qui-	.	.	.	2a\	.	.	1ff\	-brant	.
.	.	2c/	tu-	2a\	2ryy	-a(m)	.	.	.	.
2.E/	-cum-	2B/	-a(m)	1g#X/	1ryy	San-	.	2ee\	tu-	.
.	.	2E/	San-	.	.	.	.	2ee\	-a(m)	.
!LO:TX:t=P:problem:kreska pseudotaktowa	!	!	!	!	!	!	!	!	!	!
4E/	-q(ue)	.	.	.	.	.	.	.	.	.
*	*	*	*	*v	*v	*	*	*	*	*
=82-	=82-	=82-	=82-	=82-	=82-	=82-	=82-	=82-	=82-
!	!	!	!	!LO:TX:t=P:problem:kreska pseudotaktowa	!	!	!	!	!
2.C#X/	Ce-	2E/	-cta(m)	1a\	-cta(m)	.	2ee\	San-	.
!	!	!LO:LB:g=original	!	!	!	!	!	!	!
.	.	2E/	com-	.	.	.	1a/	-cta(m)	.
4C#/	-le-	.	.	.	.	.	.	.	.
!LO:TX:t=P:problem:kreska pseudotaktowa	!	!	!	!	!	!	!	!	!
1D/	-brant	2.F#X/	-me-	2r	.	.	.	.	.
!	!	!	!	!LO:TX:t=P:problem:kreska pseudotaktowa	!	!	!	!	!
.	.	.	.	2d/	Com-	.	2a/	Com-	.
.	.	4F#/	-mo-	.	.	.	.	.	.
=83-	=83-	=83-	=83-	=83-	=83-	=83-	=83-	=83-	=83-
1BB/	tu-	(2G#X/	-ra-	2d/	-me-	.	1.b\	-me-	.
!	!	!	!	!LO:TX:t=P:problem:kreska pseudotaktowa	!	!	!	!	!
.	.	2.A/)	.	2d/	-mo-	.	.	.	.
2E/	-a(m)	.	.	2.e/	-ra-	.	.	.	.
.	.	4G#X/	ti-	.	.	.	.	.	.
!LO:TX:t=P:problem:kreska pseudotaktowa	!	!	!	!	!	!	!	!	!
2E/	San-	2G#/	-o-	.	.	.	2b/	-mo-	.
!	!	!	!	!LO:TX:t=P:problem:kreska pseudotaktowa	!	!	!	!	!
.	.	.	.	4e/	-ti-	.	.	.	.
=84-	=84-	=84-	=84-	=84-	=84-	=84-	=84-	=84-	=84-
2AA/	-cta(m)	1A/	-nem	2e/	-o-	.	2cc#X\	-ra-	.
!LO:TX:t=P:problem:kreska pseudotaktowa	!	!	!	!LO:TX:t=P:problem:kreska pseudotaktowa	!	!	!	!	!
2F\	Com-	.	.	2a\	-ne(m)	.	2.dd\	.	.
2.E/	-me-	1e\	Com-	2a\	Com-	.	.	.	.
.	.	.	.	.	.	.	4cc#\	ti-	.
.	.	.	.	4g/	-me-	.	2cc#X\	-o-	.
!LO:TX:t=P:problem:kreska pseudotaktowa	!	!	!	!LO:TX:t=P:problem:kreska pseudotaktowa	!	!	!	!	!
4E/	-mo-	.	.	4g/	-mo-	.	.	.	.
=85-	=85-	=85-	=85-	=85-	=85-	=85-	=85-	=85-	=85-
!	!	!	!	!LO:TX:t=P:problem:kreska pseudotaktowa skreślona	!	!	!	!	!
*	*	*	*	*	*	*	*lig	*	*
2.D/	-ra-	2.A/	-me-	2g/	-ra-	.	1dd\	.	.
.	.	.	.	2f/	-ti-	.	.	.	.
4D/	-ti-	4A/	-mo-	.	.	.	.	.	.
!	!	!	!	!LO:TX:t=P:problem:ligatura above/below	!	!	!	!	!
1D/	-o-	2d\	-ra-	[>&[<2f/	-o-	.	1a/	.	.
.	.	2d\	-ti-	2f/]>&]<	.	.	.	.	.
*	*	*	*	*	*	*	*Xlig	*	*
!LO:LB:g=original	!	!	!	!	!	!	!	!	!
=86-	=86-	=86-	=86-	=86-	=86-	=86-	=86-	=86-	=86-
0.AA/;;	-nem.	2d\	-o-	0.e/;;	-nem.	.	0.a/;;	-nem	.
.	.	4c#X/	.	.	.	.	.	.	.
!	!	!LO:N:acc=#	!	!	!	!	!	!	!
.	.	4Bn/	.	.	.	.	.	.	.
.	.	0c#\;;	-nem.	.	.	.	.	.	.
=-	=-	=-	=-	=-	=-	=-	=-	=-	=-
*-	*-	*-	*-	*-	*-	*-	*-	*-	*-
!!!system-decoration: [(s1,s2,s3,s4)]
!!!EED: Leszek Kubiak
!!!EST: 2021-04-09
!!!ENC: Andrzej Kubiczek
!!!END: 2021-04-01
